icons/folder-keyhole-line.svg

<svg xmlns="http://www.w3.org/2000/svg" width="24" height="24" fill="none"><g clip-path="url(#a)"><g><path fill="#121212" d="M10.414 3L12.414 5H21C21.2652 5 21.5196 5.10536 21.7071 5.29289C21.8946 5.48043 22 5.73478 22 6V20C22 20.2652 21.8946 20.5196 21.7071 20.7071C21.5196 20.8946 21.2652 21 21 21H3C2.73478 21 2.48043 20.8946 2.29289 20.7071C2.10536 20.5196 2 20.2652 2 20V4C2 3.73478 2.10536 3.48043 2.29289 3.29289C2.48043 3.10536 2.73478 3 3 3H10.414ZM9.586 5H4V19H20V7H11.586L9.586 5ZM12 9C12.4403 8.9998 12.8684 9.14492 13.2179 9.41286C13.5673 9.6808 13.8186 10.0566 13.9326 10.4819C14.0467 10.9072 14.0172 11.3582 13.8488 11.7651C13.6803 12.1719 13.3823 12.5118 13.001 12.732L13 17H11V12.732C10.6187 12.5119 10.3208 12.1721 10.1523 11.7653C9.98384 11.3586 9.95429 10.9076 10.0682 10.4824C10.1822 10.0571 10.4333 9.68133 10.7825 9.41332C11.1318 9.1453 11.5597 9.00002 12 9Z"/></g></g><defs><clipPath id="a"><rect width="24" height="24" fill="white"/></clipPath></defs></svg>

<svg width="24" height="24" fill="none" xmlns="http://www.w3.org/2000/svg"><g clip-path="url(#a)"><path d="m10.414 3 2 2H21a1 1 0 0 1 1 1v14a1 1 0 0 1-1 1H3a1 1 0 0 1-1-1V4a1 1 0 0 1 1-1h7.414Zm-.828 2H4v14h16V7h-8.414l-2-2ZM12 9a2 2 0 0 1 1.001 3.732L13 17h-2v-4.268A2 2 0 0 1 12 9Z" /></g><defs><clipPath id="a"><path fill="#fff" d="M0 0h24v24H0z"/></clipPath></defs></svg>
